frontend/public/svg/interface/zoom-in.svg

<svg width="159" height="154" viewBox="0 0 159 154" fill="none" xmlns="http://www.w3.org/2000/svg">
<g clip-path="url(#clip0)">
<path d="M14.5584 89.0236C18.4681 93.6319 23.5945 97.0394 29.3482 98.8536C34.6977 100.546 40.2627 101.455 45.8709 101.552C54.1115 101.739 62.3897 100.355 71.1899 97.3279C77.2152 95.2655 82.9732 92.487 88.3413 89.0516C88.4689 89.3108 88.6249 89.5558 88.8062 89.7806C98.6488 101.542 109.39 112.293 118.602 121.262C127.92 130.332 137.524 139.404 146.562 147.919C147.982 149.195 149.492 150.368 151.078 151.428C151.532 151.749 151.991 152.069 152.442 152.396C153.183 152.982 154.089 153.318 155.032 153.359C155.728 153.357 156.402 153.119 156.946 152.684C158.44 151.526 158.732 149.642 157.689 147.883L157.16 146.983C156.104 145 154.817 143.151 153.326 141.473C147.01 134.934 140.206 128.106 133.102 121.18C125.232 113.508 117.189 105.75 109.411 98.2487C105.177 94.166 100.946 90.0815 96.7192 85.9936C96.1603 85.453 95.6391 84.8598 95.1353 84.286C95.011 84.1437 94.8873 84.0033 94.7649 83.8656L94.9656 83.6434C95.2557 83.3185 95.5484 82.9975 95.8554 82.6953C103.119 75.6263 107.098 66.7872 107.68 56.4243C108.692 38.4186 102.638 23.1455 89.6882 11.0282C83.3403 4.94621 75.1088 1.22828 66.3631 0.493103C57.8576 -0.323972 49.2761 0.660071 41.1736 3.38146C28.8548 7.59665 18.375 15.6449 10.0269 27.3015C2.58018 37.6942 -0.35512 49.0752 1.29352 61.1269C2.63393 70.9822 6.97568 80.1072 14.5584 89.0236ZM53.5404 12.2042C54.8614 12.0795 56.1823 11.9565 57.5033 11.8352C77.2088 11.0633 88.9506 24.6094 93.3707 37.5369C96.3915 46.3741 97.0319 53.8414 95.3872 61.0456C94.3058 66.0536 91.8672 70.6638 88.3407 74.3696C84.2411 78.6452 79.334 82.0585 73.9057 84.4095C61.8295 89.8287 50.0896 91.6046 38.0182 89.8365C30.2788 88.7039 24.3965 85.2938 20.0353 79.4119C15.5524 73.3689 12.7304 67.6261 11.4075 61.8637C9.48402 53.9318 10.2635 45.582 13.6214 38.1464C17.4814 29.5504 22.6028 23.2111 29.2783 18.7672C34.5797 15.2375 39.4531 13.4045 44.6153 13.0003C47.594 12.7644 50.6167 12.4791 53.5404 12.2042Z" fill="black"/>
<path d="M20.9158 50.6481C20.8311 51.3752 21.0303 52.107 21.4715 52.6899C21.9128 53.2729 22.5619 53.6617 23.2826 53.7749C24.5126 54.0906 25.7779 54.246 27.0474 54.2375C31.9092 54.0497 36.8486 53.8061 41.6255 53.5709L46.3046 53.3421C47.1069 53.3031 47.9092 53.2603 48.8158 53.2122L49.6356 53.1692L49.6673 53.4513C49.7198 53.9126 49.7586 54.2519 49.7884 54.5924C49.9132 56.0219 50.0364 57.4513 50.1581 58.8808C50.4664 62.4826 50.7856 66.2053 51.1456 69.8656C51.1769 71.095 51.5271 72.2945 52.1616 73.3465C52.954 74.4213 54.0921 75.188 55.3832 75.5168C55.5466 75.5486 55.7127 75.5649 55.8792 75.5655C57.1924 75.5655 58.3295 74.535 58.7394 72.9014C59.0875 71.6688 59.2465 70.39 59.2108 69.1092C59.0411 66.5276 58.7808 63.9149 58.5283 61.3885C58.4311 60.4142 58.3357 59.4395 58.242 58.4645L57.6762 52.5454L57.9176 52.5181C58.3644 52.4661 58.705 52.4272 59.0463 52.3934L63.8012 51.921C68.0971 51.4967 72.5386 51.058 76.9043 50.5824C78.1165 50.5183 79.2944 50.1579 80.3363 49.5324C80.8025 49.1734 81.1794 48.7107 81.4364 48.1808C81.6942 47.6508 81.8263 47.0681 81.8211 46.4784C81.6987 45.4244 80.6691 44.3756 79.7638 43.8473C78.8398 43.4262 77.818 43.2671 76.8104 43.3873C73.7728 43.5036 70.1725 43.6602 66.5048 43.9357C64.1606 44.1118 61.8637 44.3465 59.4329 44.5954C58.5928 44.682 57.7452 44.7685 56.89 44.8552L56.8583 44.3783C56.8123 43.6922 56.7741 43.119 56.7418 42.5452L56.4762 37.8018C56.2988 34.6113 56.1171 31.4212 55.931 28.2317C55.8222 26.4123 54.8716 25.2731 53.2534 25.0184C52.9221 24.9655 52.5836 24.9802 52.2581 25.0615C51.9325 25.1428 51.6267 25.289 51.3587 25.4914C50.9638 25.8099 50.6353 26.2033 50.3922 26.6494C50.1491 27.0954 49.9961 27.5851 49.9419 28.0906C49.7698 29.4454 49.6965 30.8111 49.7224 32.1765C49.7062 35.5372 49.7088 38.8986 49.7113 42.3509V45.7571C48.7569 45.8604 47.8283 45.963 46.9179 46.0631C44.5511 46.323 42.3158 46.572 40.0759 46.7779C34.6178 47.2763 29.0587 47.7331 23.8647 48.1522C21.6158 48.3348 21.0182 49.6104 20.9158 50.6481Z" fill="black"/>
</g>
<defs>
<clipPath id="clip0">
<rect width="158" height="154" fill="white" transform="translate(0.777344)"/>
</clipPath>
</defs>
</svg>

<svg xmlns="http://www.w3.org/2000/svg" width="159" height="154" fill="none" viewBox="0 0 159 154"><g fill="#000" clip-path="url(#a)"><path d="M14.558 89.024a32.03 32.03 0 0 0 14.79 9.83 58.1 58.1 0 0 0 16.523 2.698c8.24.187 16.519-1.197 25.319-4.224a79.7 79.7 0 0 0 17.151-8.276q.193.39.465.729c9.843 11.761 20.584 22.512 29.796 31.481 9.318 9.07 18.922 18.142 27.96 26.657a40 40 0 0 0 4.516 3.509c.454.321.913.641 1.364.968a4.5 4.5 0 0 0 2.59.963 3.08 3.08 0 0 0 1.914-.675c1.494-1.158 1.786-3.042.743-4.801l-.529-.9a28.4 28.4 0 0 0-3.834-5.51 960 960 0 0 0-20.224-20.293c-7.87-7.672-15.913-15.43-23.691-22.931a11869 11869 0 0 1-12.692-12.255c-.559-.541-1.08-1.134-1.584-1.708l-.37-.42.2-.223c.29-.325.583-.645.89-.948 7.264-7.069 11.243-15.908 11.825-26.27 1.012-18.006-5.042-33.28-17.992-45.397A38.36 38.36 0 0 0 66.363.493a60.8 60.8 0 0 0-25.19 2.888c-12.318 4.216-22.798 12.264-31.146 23.92C2.58 37.695-.355 49.076 1.294 61.128c1.34 9.855 5.682 18.98 13.264 27.897m38.982-76.82q1.981-.187 3.963-.369c19.706-.772 31.448 12.774 35.868 25.702 3.02 8.837 3.66 16.304 2.016 23.509a27.86 27.86 0 0 1-7.046 13.324 44.5 44.5 0 0 1-14.435 10.04c-12.077 5.419-23.816 7.195-35.888 5.427-7.74-1.133-13.622-4.543-17.983-10.425-4.483-6.043-7.305-11.786-8.627-17.548a36.65 36.65 0 0 1 2.213-23.718c3.86-8.596 8.982-14.935 15.657-19.379 5.302-3.53 10.175-5.362 15.337-5.767 2.979-.236 6.002-.52 8.925-.796"/><path d="M20.916 50.648a2.84 2.84 0 0 0 .555 2.042 2.82 2.82 0 0 0 1.812 1.085c1.23.316 2.495.471 3.764.462 4.862-.187 9.802-.43 14.579-.666l4.679-.229c.802-.039 1.604-.082 2.51-.13l.82-.043.032.282c.053.462.092.8.121 1.141q.187 2.145.37 4.289a877 877 0 0 0 .988 10.985 7.1 7.1 0 0 0 1.016 3.48 5.77 5.77 0 0 0 3.221 2.17q.246.049.496.05c1.313 0 2.45-1.031 2.86-2.665.349-1.232.508-2.511.472-3.792-.17-2.581-.43-5.194-.683-7.72q-.145-1.463-.286-2.925l-.566-5.919.242-.027c.446-.052.787-.09 1.128-.125l4.755-.472c4.296-.424 8.738-.863 13.103-1.339a7.4 7.4 0 0 0 3.432-1.05 3.82 3.82 0 0 0 1.485-3.054c-.122-1.054-1.152-2.102-2.057-2.63a5.54 5.54 0 0 0-2.954-.46c-3.037.116-6.638.272-10.305.548-2.344.176-4.641.41-7.072.66l-2.543.26-.032-.478a171 171 0 0 1-.116-1.833l-.266-4.743q-.266-4.785-.545-9.57c-.109-1.82-1.06-2.959-2.678-3.214a2.5 2.5 0 0 0-1.894.473 3.86 3.86 0 0 0-1.417 2.6 28 28 0 0 0-.22 4.085c-.016 3.361-.013 6.723-.01 10.175v3.406q-1.43.155-2.794.306c-2.367.26-4.602.509-6.842.715-5.458.498-11.017.955-16.211 1.374-2.25.183-2.847 1.458-2.95 2.496"/></g><defs><clipPath id="a"><path fill="#fff" d="M.777 0h158v154h-158z"/></clipPath></defs></svg>
